X: 1
T: Ruha
O: Finland
Z: John Chambers <jc@trillian.mit.edu>
M: 2/4
L: 1/8
K: G
|: DGA \
|| "G"Bd dB | "D7"Ac BA | "G"G4- | G DGA | "G"Bd dB | "D7"Ac BA | "G"G3 G |
| G2 B2 || "D7"A3 B | AG FE | D2 d2 | d2 B2 | "D7"A3 B | "A7"AG FE | "D"D4- | D :|
